X:1
T:Title
%%score { ( 1 4 ) | ( 2 3 ) }
L:1/8
Q:1/4=96
M:2/4
K:Bb
V:1 treble nm="Grand Piano"
V:4 treble 
V:2 bass 
V:3 bass 
V:1
 [B,D]E FG | [DF]2 [Fd]2 | [Fd]c GA | [DB]4 | [GB]B [FA]G | [DF]2 [Fd]2 | [=Ed]c Gd | [Ec]4 | %8
w: Ira~B.~Wilson * * *||||||||
 [F,B,D][F,CE] [B,DF]2 | [F,B,D][F,CE][K:treble] [B,DF]2 | [B,D][CE] [DF][DB] | [EA]4[K:bass] | %12
w: ||||
 Ac GA | BD AG | Fd dc | [DB]4 |] %16
w: ||||
V:2
 z C DE | B,,2 [F,B,D]2 | z E EE | B,,2 F,2 | z G z E | B,,2 [F,B,D]2 | z =E EE | F,E, D,C, | %8
 B,,B,, B,,2 | B,,B,, B,,2 | [B,,F,]2 [B,,F,]2 | [C,F,]C, C,2 | [F,CE][F,A,E] [F,B,E][F,_DE] | %13
 [G,B,D][G,B,] [=E,B,_D][E,B,D] | [F,B,D][F,B,F] [F,A,F][F,E] | [B,,F,]4 |] %16
V:3
 B,,2 [F,B,]2 | x4 | F,,2 [F,A,C]2 | x4 | E,,2 [E,G,B,]2 | x4 | C,2 [G,B,C]2 | x4 | x4 | x4 | x4 | %11
 x4 | x4 | x4 | x4 | x4 |] %16
V:4
 x4 | x4 | x4 | z2 B,2 | x4 | x4 | x4 | x4 | x4 | x2[K:treble] x2 | x4 | z[K:bass] F, F,2 | x4 | %13
 x4 | x4 | x4 |] %16

